svgs/sharp-solid/road-spikes.svg

<svg xmlns="http://www.w3.org/2000/svg" viewBox="0 0 640 512"><!--! Font Awesome Pro 6.6.0 by @fontawesome - https://fontawesome.com License - https://fontawesome.com/license (Commercial License) Copyright 2024 Fonticons, Inc. --><path d="M32 96l0 256 128 0 64 0 64 0 64 0 64 0 64 0 128 0L448 96l-32 0 0 153.6L320 96l-32 0 0 153.6L192 96l-32 0 0 153.6L64 96 32 96zM0 384l0 64 32 0 576 0 32 0 0-64-32 0L32 384 0 384z"/></svg>

<svg xmlns="http://www.w3.org/2000/svg" viewBox="0 0 640 512"><!--! Font Awesome Pro 6.4.2 by @fontawesome - https://fontawesome.com License - https://fontawesome.com/license (Commercial License) Copyright 2023 Fonticons, Inc. --><path d="M32 96V352H160h64 64 64 64 64H608L448 96H416V249.6L320 96H288V249.6L192 96H160V249.6L64 96H32zM0 384v64H32 608h32V384H608 32 0z"/></svg>
